packages/icons/svg/24/ReadHorizontalRight.svg

<svg width="24" height="24" viewBox="0 0 24 24" fill="none" xmlns="http://www.w3.org/2000/svg">
<path d="M14.7071 8.29283C14.3166 7.90231 13.6834 7.90231 13.2929 8.29283C12.9024 8.68336 12.9024 9.31652 13.2929 9.70705L14.5858 10.9999L7 10.9999C6.44772 10.9999 6 11.4477 6 11.9999C6 12.5522 6.44772 12.9999 7 12.9999L14.5858 12.9999L13.2929 14.2928C12.9024 14.6834 12.9024 15.3165 13.2929 15.707C13.6834 16.0976 14.3166 16.0976 14.7071 15.707L17.7071 12.707C17.8991 12.5151 17.9967 12.2645 17.9999 12.0129C18 12.0086 18 12.0043 18 11.9999C18 11.9956 18 11.9914 17.9999 11.9871C17.9983 11.8562 17.9715 11.7313 17.9241 11.6172C17.8757 11.5001 17.804 11.3903 17.7092 11.295" fill="#858585"/>
<path fill-rule="evenodd" clip-rule="evenodd" d="M3 6.99994L3 16.9999C3 19.2091 4.79086 20.9999 7 20.9999L17 20.9999C19.2091 20.9999 21 19.2091 21 16.9999L21 6.99994C21 4.7908 19.2091 2.99994 17 2.99994L7 2.99994C4.79086 2.99994 3 4.7908 3 6.99994ZM7 18.9999C5.89543 18.9999 5 18.1045 5 16.9999L5 6.99994C5 5.89537 5.89543 4.99994 7 4.99994L17 4.99994C18.1046 4.99994 19 5.89537 19 6.99994L19 16.9999C19 18.1045 18.1046 18.9999 17 18.9999H7Z" fill="#858585"/>
</svg>

<svg width="24" height="24" fill="none" xmlns="http://www.w3.org/2000/svg" viewBox="0 0 24 24"><path d="M14.707 8.293a1 1 0 10-1.414 1.414L14.586 11H7a1 1 0 000 2h7.586l-1.293 1.293a1 1 0 001.414 1.414l3-3a.996.996 0 00.293-.694V12v-.013a.994.994 0 00-.29-.692" fill="currentColor"></path><path fill-rule="evenodd" clip-rule="evenodd" d="M3 7v10a4 4 0 004 4h10a4 4 0 004-4V7a4 4 0 00-4-4H7a4 4 0 00-4 4zm4 12a2 2 0 01-2-2V7a2 2 0 012-2h10a2 2 0 012 2v10a2 2 0 01-2 2H7z" fill="currentColor"></path></svg>
